!!!OTL: J&auml;gerfreuden (237), S. 509
!!!id: T0424
**kern
*clefG2
*k[b-]
*F:
{8b-
=1
4.b-
8b-
=2
4a
4f
=3
4g
4e
=4
4f}
4r
=5
{4.ff
8ff
=6
4ee
4cc
=7
4dd
4b
=8
4cc}
=9
{4cc
=10
4.ff
8ee
=11
8dd
8ee
8ff
8dd
=12
4cc
4a}
=13
{4dd
4cc
=14
4b-
4a
=15
4g
16a
16b-
8g
=16
4f
8c}
=17
{8c
=18
4f
4g
=19
4.a
8a
=20
4cc
8dd
8ee
=21
4ff}
4r
=22
{4.dd
8dd
=23
4.cc
8a
=24
4cc
8b-
8g
=25
4f}
8r
==
*-
!!!minrhy: 16
!!!meters: 2/4 ]  ZZ[6
!!!cut: J&auml;gerfreuden (237), S. 509
!!!reg: Luxemburg
!!!trd: Singendes Volk, Esch-Alzette, 1937 posth.
!!!rhy1: X_  X__.X_  X__X__  X__X__  X__0_   (x2)
!!!rhy2: X__.X_  X__X__  X__X__  X__
!!!key: T0424  16  F 2/4 ]  ZZ[6
!!!mod: ACHTTONSKALA DUR ?]  AMBITUS[11
!!!kad: 153-5+11
!!!akz: 4321_+1765_+165_6421_135+1_6551_
!!!fot: 'a__as'b__c__d__e__
!!!for: 'a__av_b__c__d__e__
!!!fok: '\__\__Md_Sd_/__\__
!! PHRAS[GEMISCHTTAKTIG]
!!!fkt: J&auml;gerlied
!!!bem: Esch-Alzette, hhh Eugen Lemmer, 1915
!! THILL; Mathias
!! PR[35] 2K[6] 2G[11] 3K[4] 3G[4] 4A[2] 4Ü[0] 5A[1] 6K[0] 6G[1]
!! 7K[0] 7G[0] 8A[3] MEHR[0] SI[33] ABS[135] SR[17] SP[16]
!! ST[30] 2k[1] 2g[16] 3k[1] 3g[1] 4d[6] 4ü[2] 5d[0] 6k[1] 6g[1]
!! 7k[0] 7g[0] 8d[1] mehr[0] si[32] dm[+1] sr[18] sp[14]
!! 1F[7] 2F[50] 3F[30] 4F[7] LF[0] 2P[0] 3P[6] 4P[0] TRI[0] DF[5] AB[149]
!! TF[0] U3K[0] U3[0] U4[0] U4Ü[0] U5[0] U6K[0] U6[0] U7K[0] U7[2]
!! N1[10] N2K[0] N2[4] N3K[0] N3[8] N4[15] N4Ü[0] N5[23] N6K[0] N6[10]
!!!n7k: 0] N7[7] O1[18] O2K[0] O2[1] O3K[0] O3[1] HÖ[0
!!!RNB: symbol: &auml;      = a umlaut  (UTF-8: Å„)
